X:11
T: Als Gott den Adam hat erschaff'n, S. 43
N: S0074
O: Luxemburg
S: Die Bauernhochzeit in frheren Zeiten]
R: Hochzeitslied, religises Ehestandslied]
M: 3/4
L: 1/16
K: C
G2A2G2 | E6c2B2A2 | G4
G2G2A2E2 | F4G2A2G2F2 | E4z2
E2E2E2 | D4G2A2G2E2 | c6
c2B2A2 | G6G2AGF2 | E4z2
EED2G2 | G6z2
c2c2 | d8B4 | c4z2

